X: 2125
T: Ötme Ey Bülbül-i Şûrîde
C: Rifat Bey (Sermüezzin, Miralay)
O: Turkey
F: http://compmusic.upf.edu/node/140
N: evic--sarki--devrihindi_ii--otme_ey--rifat_bey
N: makam= evic
N: form= sarki
N: usul= devrihindi_ii = 7/8
M: 7/8
L: 1/16
K: C _1/4B ^f ^c 
Q: 1/4=108
%%MIDI tuningsystem comma53
fga2 a2ag baa3/2g/ ^3/4f.e | de ^3/4f2ga g^f^3/4eg f4  | 
w:  ARANAĞME  |   | 
defg aggf feed cd | d2 ^3/4e2fg f3/2g/fe efed  | 
w:   |   | 
d3a fg.a2 .a2b=c' ba | d^3/4e f2ga gfeg f4  | \
w:   |   | 
defg agg=f feed d=c | 
w:   | 
AB =c2BA AGGF F4  | fga2 a2ag baa3/2g/ ^3/4f.e | 
w:   |  ARANAĞME  | 
de ^3/4f2ga g^f^3/4eg f4  | defg aggf feed cd | 
w:   |   | 
d2 ^3/4e2fg f3/2g/fe efed  | d3a fg.a2 .a2b=c' ba | 
w:   |   | 
d^3/4e f2ga gfeg f4  | defg agg=f feed d=c | 
w:   |   | 
AB =c2BA AGGF F4  | f4 a2a/g/a/b/ agf4 | \
w:   |  Öt me  ey  *  *  *  *  *  bül  | 
^3/4e2 f2g2 agfe d4  | 
w:  bül_ *  i  şû *  *  *  rî  | 
edc2 d2e2 f2g3f | b4ag agf^3/4e {g}f4  | \
w:  de  *  *  o  yâ *  rim   |  u yu *  sun    | 
efg2 ^3/4feed d=cd4 | 
w:  Ke *  *  rem  *  et  *  *  *  ner  | 
=cd e{=f}e{f}dc c3/2d/cB A4  | A3/2B/AB AGF4d2 =cB | 
w:  gis_ *  *  *  *  *  i  *  şeh *  *  *  lâ  |  yı  *  *  *  ni *  gâ rım   | 
AG B2AG AGGF F4  | efg2 ^3/4feed d=cd4 | \
w:  u *  *  yu *  sun    |  Ke *  *  rem  *  et  *  *  *  ner  | 
=cd e{=f}e{f}dc c3/2d/cB A4  | 
w:  gis_ *  *  *  *  *  i  *  şeh *  *  *  lâ  | 
A3/2B/AB AGF4d2 =cB | AG B2AG AGGF F4  | \
w:  yı  *  *  *  ni *  gâ rım   |  u *  *  yu *  sun    | 
d4 d2e3^3/4fd4 | 
w:  Es me  ey  *  bâd_  | 
ef e2f2 agfe d4  | d4 =c_2/4Bc3/2d/ cBg3/2f/ ga | \
w:  ı  *  *  sa bâ  *  *  *  bâg_  |  ı  ba *  hâ *  *  *  rım   | 
f4ef agfe d4  | 
w:  u yu *  sun    | 
efg2 ^3/4feed d=cd4 | =cd e{=f}e{f}dc c3/2d/cB A4  | 
w:  Ke *  *  rem  *  et  *  *  *  ner  |  gis_ *  *  *  *  *  i  *  şeh *  *  *  lâ  | 
A3/2B/AB AGF4d2 =cB | AG B2AG AGGF F4  | \
w:  yı  *  *  *  ni *  gâ rım   |  u *  *  yu *  sun    | 
efg2 ^3/4feed d=cd4 | 
w:  Ke *  *  rem  *  et  *  *  *  ner  | 
=cd e{=f}e{f}dc c3/2d/cB A4  | A3/2B/AB AGF4d2 =cB | 
w:  gis_ *  *  *  *  *  i  *  şeh *  *  *  lâ  |  yı  *  *  *  ni *  gâ rım   | 
AG B2AG AGGF F4  | |


